app/images/src/icons/twit.svg

<svg width="25" height="25" viewBox="0 0 25 25" fill="none" xmlns="http://www.w3.org/2000/svg">
<path d="M24.8895 5.34856C24.8171 5.23066 24.7132 5.13526 24.5896 5.07303C24.466 5.01081 24.3276 4.98423 24.1897 4.99627L22.9431 5.10486L24.1347 2.70286C24.2039 2.56334 24.2277 2.40563 24.2027 2.25189C24.1777 2.09816 24.1052 1.9561 23.9954 1.84569C23.8855 1.73527 23.7438 1.66203 23.5902 1.63626C23.4366 1.61048 23.2788 1.63346 23.1389 1.70198L19.9853 3.24646C18.0369 2.21785 15.6026 2.52317 13.9276 4.049C12.5297 5.32244 11.7949 7.28079 11.9319 9.23372C8.27813 8.86751 5.18536 6.77615 3.35655 3.39695C3.29684 3.28664 3.21027 3.19319 3.10485 3.12522C2.99943 3.05726 2.87857 3.01699 2.75346 3.00815C2.62834 2.9993 2.50302 3.02216 2.38909 3.07462C2.27515 3.12707 2.1763 3.20742 2.10167 3.30823C0.967388 4.84055 0.887798 6.94153 1.77701 8.67C1.53189 8.60808 1.27105 8.52429 0.981792 8.42766C0.859928 8.38692 0.7296 8.37836 0.603455 8.40283C0.477311 8.4273 0.359634 8.48397 0.261845 8.56732C0.164057 8.65068 0.0894772 8.7579 0.0453444 8.87858C0.00121164 8.99926 -0.0109755 9.1293 0.00996577 9.25608C0.361821 11.3893 1.60577 13.0287 3.57081 13.9991C3.31496 14.0883 3.05361 14.1607 2.78838 14.2159C2.65884 14.2429 2.53881 14.3039 2.44062 14.3926C2.34244 14.4813 2.26964 14.5946 2.2297 14.7208C2.18976 14.8469 2.18412 14.9814 2.21337 15.1105C2.24261 15.2395 2.30568 15.3585 2.3961 15.4551C3.81119 16.9677 5.85533 17.7122 7.30728 18.0693C5.6564 19.3621 3.87432 19.5785 1.28477 19.4896C0.985015 19.4805 0.708843 19.6493 0.582817 19.9211C0.521194 20.054 0.500111 20.2022 0.522204 20.347C0.544296 20.4919 0.608584 20.627 0.707036 20.7356C1.78653 21.9255 5.71944 23.2672 9.85381 23.3678C10.0173 23.3717 10.1841 23.3739 10.3544 23.3739C13.2573 23.3738 17.0938 22.7515 19.8476 19.9978C21.9319 17.9135 23.2356 15.514 23.7224 12.8663C24.1155 10.7278 23.867 9.01526 23.7477 8.19221C23.7389 8.13172 23.7295 8.06751 23.7219 8.01135L24.8879 6.13196C24.9609 6.01439 24.9997 5.87884 24.9999 5.74048C25.0002 5.60213 24.962 5.46642 24.8895 5.34856ZM22.272 8.40628C22.4933 9.93089 23.1664 14.5703 18.7933 18.9434C16.2513 21.4854 12.5487 21.9418 9.89004 21.8772C7.62144 21.822 5.59224 21.3882 4.12154 20.8933C4.71866 20.8201 5.25079 20.7071 5.75308 20.551C7.1378 20.1206 8.30762 19.3461 9.43448 18.1137C9.52661 18.013 9.5893 17.8889 9.61572 17.7549C9.64213 17.6209 9.63125 17.4823 9.58426 17.3541C9.53728 17.2259 9.45599 17.1131 9.34927 17.0279C9.24254 16.9428 9.11448 16.8886 8.97906 16.8712C8.26817 16.7801 6.13213 16.4205 4.4501 15.2603C4.93482 15.062 5.4023 14.8139 5.84869 14.5178C5.96855 14.4383 6.06285 14.3258 6.1202 14.1939C6.17756 14.062 6.19553 13.9163 6.17195 13.7743C6.14837 13.6324 6.08424 13.5004 5.9873 13.3941C5.89035 13.2878 5.76474 13.2119 5.62559 13.1754C4.24888 12.8144 2.58736 12.0068 1.8212 10.2039C2.31045 10.2897 2.84244 10.3104 3.40982 10.1832C3.53899 10.1543 3.65812 10.0915 3.75498 10.0012C3.85183 9.91101 3.92292 9.79662 3.96092 9.66982C3.99893 9.54302 4.00249 9.40839 3.97124 9.27976C3.93999 9.15113 3.87506 9.03314 3.78311 8.93792C2.82979 7.95051 2.4733 6.52757 2.77916 5.30994C3.78082 6.77385 5.04981 8.00589 6.50372 8.91677C8.36363 10.0821 10.5344 10.7261 12.7815 10.7789C12.8946 10.7814 13.0068 10.7582 13.1096 10.7111C13.2124 10.6639 13.3032 10.5941 13.3752 10.5068C13.447 10.4194 13.4979 10.3168 13.5242 10.2067C13.5505 10.0967 13.5514 9.98214 13.5269 9.87171C13.1402 8.13367 13.6917 6.28084 14.9317 5.1513C16.2178 3.97966 18.1187 3.80193 19.5541 4.71936C19.6619 4.78825 19.7856 4.82824 19.9133 4.83547C20.0411 4.84271 20.1685 4.81695 20.2835 4.76067L21.8235 4.00637L21.0174 5.63142C20.9586 5.75 20.9324 5.8821 20.9416 6.01416C20.9507 6.14621 20.9948 6.27345 21.0694 6.38279C21.144 6.4922 21.2463 6.57976 21.3659 6.63647C21.4856 6.69317 21.6181 6.71696 21.75 6.7054L22.836 6.61082L22.3357 7.41721C22.1678 7.68787 22.2026 7.928 22.272 8.40628Z" fill="white"/>
</svg>

<svg width="25" height="25" fill="none" xmlns="http://www.w3.org/2000/svg"><path d="M24.89 5.349a.745.745 0 00-.7-.353l-1.247.109 1.192-2.402a.746.746 0 00-.996-1.001l-3.154 1.544c-1.948-1.028-4.382-.723-6.057.803-1.398 1.273-2.133 3.232-1.996 5.185-3.654-.366-6.747-2.458-8.575-5.837a.746.746 0 00-1.255-.089C.967 4.841.888 6.942 1.777 8.67a11.307 11.307 0 01-.795-.242.746.746 0 00-.972.828C.362 11.39 1.606 13.03 3.57 14c-.255.09-.516.162-.782.217a.746.746 0 00-.392 1.24c1.415 1.512 3.46 2.256 4.911 2.613-1.65 1.293-3.433 1.51-6.022 1.42a.747.747 0 00-.578 1.247c1.08 1.19 5.012 2.531 9.147 2.632.163.004.33.006.5.006 2.903 0 6.74-.622 9.494-3.376 2.084-2.085 3.388-4.484 3.874-7.132.393-2.138.145-3.85.026-4.674-.01-.06-.018-.124-.026-.18l1.166-1.88a.744.744 0 00.002-.783zm-2.618 3.057c.221 1.525.894 6.164-3.479 10.537-2.542 2.542-6.244 2.999-8.903 2.934-2.269-.055-4.298-.489-5.768-.984a9.216 9.216 0 001.631-.342c1.385-.43 2.555-1.205 3.681-2.437a.745.745 0 00-.455-1.243c-.71-.09-2.847-.45-4.529-1.61a8.028 8.028 0 001.399-.743.745.745 0 00-.223-1.343c-1.377-.36-3.039-1.168-3.805-2.971.49.086 1.021.106 1.589-.02a.745.745 0 00.373-1.246C2.83 7.95 2.473 6.528 2.78 5.31a12.72 12.72 0 003.725 3.607 12.367 12.367 0 006.277 1.862.748.748 0 00.746-.907c-.387-1.738.165-3.591 1.405-4.72 1.286-1.172 3.187-1.35 4.622-.433a.745.745 0 00.73.042l1.54-.755-.807 1.625a.745.745 0 00.733 1.074l1.086-.094-.5.806c-.168.27-.133.511-.064.99z" fill="#fff"/></svg>
